src/images/Logo-mobile.svg

<svg width="100%" height="100%" viewBox="0 0 175 58" fill="none" xmlns="http://www.w3.org/2000/svg">
<path d="M22.2279 25.7187L31.5215 36.4062L29.79 50.6562H19.1889L0.601562 29.2812L1.44965 22.1562L25.2669 0.78125H35.868L34.1365 15.0312L22.2279 25.7187Z" fill="url(#paint0_linear_50_347)"/>
<path d="M51.381 18.5937L46.5752 57.7812L34.2072 43.5312L39.4017 0.78125H57.0703L63.2543 7.90625L71.2051 0.78125H88.8737L82.7957 50.6562H68.6609L72.5833 18.5937L71.0284 16.8125L69.0496 18.5937L65.1271 50.6562H50.9923L54.9147 18.5937L53.3599 16.8125L51.381 18.5937Z" fill="url(#paint1_linear_50_347)"/>
<path d="M96.3298 50.6562H86.3294L87.5662 40.5744L131.879 0.78125H141.879L140.643 10.8631L96.3298 50.6562Z" fill="url(#paint2_linear_50_347)"/>
<path d="M152.975 25.7187L143.682 15.0312L145.413 0.78125H156.014L174.602 22.1562L173.753 29.2812L149.936 50.6562H139.335L141.067 36.4062L152.975 25.7187Z" fill="url(#paint3_linear_50_347)"/>
<defs>
<linearGradient id="paint0_linear_50_347" x1="21.5085" y1="14.5859" x2="153.696" y2="15.0966" gradientUnits="userSpaceOnUse">
<stop offset="0.00833321" stop-color="#5C03BC"/>
<stop offset="0.53125" stop-color="#E536AB"/>
<stop offset="0.898958" stop-color="#F4E5F0"/>
</linearGradient>
<linearGradient id="paint1_linear_50_347" x1="21.5085" y1="14.5859" x2="153.696" y2="15.0966" gradientUnits="userSpaceOnUse">
<stop offset="0.00833321" stop-color="#5C03BC"/>
<stop offset="0.53125" stop-color="#E536AB"/>
<stop offset="0.898958" stop-color="#F4E5F0"/>
</linearGradient>
<linearGradient id="paint2_linear_50_347" x1="21.5085" y1="14.5859" x2="153.696" y2="15.0966" gradientUnits="userSpaceOnUse">
<stop offset="0.00833321" stop-color="#5C03BC"/>
<stop offset="0.53125" stop-color="#E536AB"/>
<stop offset="0.898958" stop-color="#F4E5F0"/>
</linearGradient>
<linearGradient id="paint3_linear_50_347" x1="21.5085" y1="14.5859" x2="153.696" y2="15.0966" gradientUnits="userSpaceOnUse">
<stop offset="0.00833321" stop-color="#5C03BC"/>
<stop offset="0.53125" stop-color="#E536AB"/>
<stop offset="0.898958" stop-color="#F4E5F0"/>
</linearGradient>
</defs>
</svg>

<svg xmlns="http://www.w3.org/2000/svg" fill="none" viewBox="0 0 175 58"><path fill="url(#a)" d="m22.228 25.719 9.293 10.687-1.731 14.25H19.189L.602 29.281l.848-7.125L25.267.781h10.601l-1.732 14.25L22.228 25.72Z"/><path fill="url(#b)" d="M51.381 18.594 46.575 57.78l-12.368-14.25L39.402.781H57.07l6.184 7.125L71.205.781h17.669l-6.078 49.875H68.66l3.922-32.062-1.555-1.782-1.978 1.782-3.923 32.062H50.992l3.923-32.062-1.555-1.782-1.979 1.782Z"/><path fill="url(#c)" d="M96.33 50.656h-10l1.236-10.082L131.88.781h10l-1.236 10.082L96.33 50.656Z"/><path fill="url(#d)" d="m152.975 25.719-9.293-10.688 1.731-14.25h10.601l18.588 21.375-.849 7.125-23.817 21.375h-10.601l1.732-14.25 11.908-10.687Z"/><defs><linearGradient id="a" x1="21.509" x2="153.696" y1="14.586" y2="15.097" gradientUnits="userSpaceOnUse"><stop offset=".008" stop-color="#5C03BC"/><stop offset=".531" stop-color="#E536AB"/><stop offset=".899" stop-color="#F4E5F0"/></linearGradient><linearGradient id="b" x1="21.509" x2="153.696" y1="14.586" y2="15.097" gradientUnits="userSpaceOnUse"><stop offset=".008" stop-color="#5C03BC"/><stop offset=".531" stop-color="#E536AB"/><stop offset=".899" stop-color="#F4E5F0"/></linearGradient><linearGradient id="c" x1="21.509" x2="153.696" y1="14.586" y2="15.097" gradientUnits="userSpaceOnUse"><stop offset=".008" stop-color="#5C03BC"/><stop offset=".531" stop-color="#E536AB"/><stop offset=".899" stop-color="#F4E5F0"/></linearGradient><linearGradient id="d" x1="21.509" x2="153.696" y1="14.586" y2="15.097" gradientUnits="userSpaceOnUse"><stop offset=".008" stop-color="#5C03BC"/><stop offset=".531" stop-color="#E536AB"/><stop offset=".899" stop-color="#F4E5F0"/></linearGradient></defs></svg>
